X:1
T:Title
%%score 1 2
L:1/8
Q:1/4=70
M:3/4
K:D
V:1 treble nm="Strings 1, Treble"
V:2 bass nm="Strings 1, Bass"
V:1
 z2 z2 [FA][FA] | [FA]3 [EG] [DF][DB] | [DA]2 [DF]2 [DF][DF] | [DF]3 [DF] [DF]D | [CE]4 [CA][CA] | %5
w: 1.~In~ the~|res ur rec tion~|morn ing,~ When~ the~|Sav ior~ comes,~ 'tis~|said,~ Robed~ in~|
 [DA]3 [DG] [DF][DB] | [DA]2 [DF]2 [DF][DF] | [CE]3 [CA] [DB][Ec] | [CA]4[Q:1/4=100] [CE]>[CE] | %9
w: all~ His~ white~ a|dorn ing,~ He~ will~|raise~ the~ si lent~|dead;~ With~ the~|
 [CE]3 [DF] [EG][DF] | [CE]4 [DF]>[DF] | [DF]3 [EG] [FA][EG] | [DF]4 [DA][DA] | %13
w: might y~ trum pet~|sound,~ Wake~ the~|na tions~ from~ the~|ground,~ Lost~ of~|
 [Fd]3 [FA] [GB][FA] | [DF]4[Q:1/4=70] D[DE] | [DF]3 [DA] [DF]>[CE] | D4 [DF]>[DF] | %17
w: ag es~ shall~ be~|found,~ In~ the~|res ur rec tion~|morn.~ * *|
 [DF]3 D [DE][DF] | [DG]2 [DF]2 [DE]D | [CE][CA] [DA]2 [EG]2 | [DF]4 [DF]>[DF] | [DF]3 D [DE][DF] | %22
w: |||||
 [DG]2 [DF]2 [DE]D | [CE][EG] [DF]2 [CE]2 | D4 z2 |] %25
w: |||
V:2
 z2 z2 [D,D][D,D] | [D,D]3 [D,A,] [D,A,][D,G,] | [D,F,]2 [D,A,]2 [D,A,][D,^A,] | %3
 [B,,B,]3 [B,,B,] [B,,B,][B,,^G,] | [A,,A,]4 [A,,G,][A,,G,] | [D,F,]3 [D,B,] [D,A,][D,G,] | %6
 [D,F,]2 [D,A,]2 [D,A,][D,A,] | [E,A,]3 [E,A,] [E,^G,][E,G,] | A,4 [A,,A,]>[A,,A,] | %9
 [A,,A,]3 [A,,A,] [A,,A,][A,,A,] | [A,,A,]4 [D,A,]>[D,A,] | [D,A,]3 [D,A,] [D,A,][D,A,] | %12
 [D,A,]4 [D,F,][D,A,] | [D,D]3 [D,D] [D,D][D,D] | [D,A,]4 [F,A,][G,B,] | %15
 A,3 [A,,F,] [A,,A,]>[A,,G,] | [D,F,]4 [D,A,]>[D,A,] | [D,A,]3 [D,F,] [D,G,][D,A,] | %18
 [D,B,]2 [D,A,]2 [D,G,][D,F,] | [A,,G,][A,,E,] [A,,F,]2 [A,,A,]2 | [D,A,]4 [D,A,]>[D,A,] | %21
 [D,A,]3 [D,F,] [D,G,][D,A,] | [D,B,]2 [D,A,]2 [D,G,][D,F,] | [A,,A,][A,,A,] [A,,A,]2 [A,,G,]2 | %24
 [D,F,]4 z2 |] %25

